static/card-icons/archive.svg

<svg height="682.66669" viewBox="0 0 682.66669 682.66669" width="682.66669" xmlns="http://www.w3.org/2000/svg"><g style="fill:none;stroke:#000;stroke-width:30;stroke-linecap:round;stroke-linejoin:round;stroke-miterlimit:10"><path d="m0 0h-422c-16.568 0-30 13.432-30 30v271h482v-271c0-16.568-13.432-30-30-30z" transform="matrix(1.3333333 0 0 -1.3333333 622.6666511 662.6666705)"/><path d="m0 0v91c0 16.569-13.432 30-30 30h-271c0 33.137-26.863 60-60 60h-91c-16.568 0-30-13.431-30-30v-151" transform="matrix(1.3333333 0 0 -1.3333333 662.6666501 261.3333472)"/><path d="m0 0v61h362v-61" transform="matrix(1.3333333 0 0 -1.3333333 99.9999975 261.3333472)"/><path d="m0 0 77.574 77.574" transform="matrix(1.3333333 0 0 -1.3333333 221.3333278 581.3333392)"/><path d="m0 0c0-33.137-26.863-60-60-60s-60 26.863-60 60 26.863 60 60 60 60-26.863 60-60z" transform="matrix(1.3333333 0 0 -1.3333333 461.3333218 421.3333432)"/></g></svg>

<?xml version="1.0" encoding="UTF-8" standalone="no"?>
<!-- Created with Inkscape (http://www.inkscape.org/) -->

<svg
   version="1.1"
   id="svg951"
   xml:space="preserve"
   width="682.66669"
   height="682.66669"
   viewBox="0 0 682.66669 682.66669"
   xmlns="http://www.w3.org/2000/svg"
   xmlns:svg="http://www.w3.org/2000/svg"><defs
     id="defs955"><clipPath
       clipPathUnits="userSpaceOnUse"
       id="clipPath965"><path
         d="M 0,512 H 512 V 0 H 0 Z"
         id="path963" /></clipPath></defs><g
     id="g957"
     transform="matrix(1.3333333,0,0,-1.3333333,0,682.66667)"><g
       id="g959"><g
         id="g961"
         clipPath="url(#clipPath965)"><g
           id="g967"
           transform="translate(467,15)"><path
             d="m 0,0 h -422 c -16.568,0 -30,13.432 -30,30 V 301 H 30 V 30 C 30,13.432 16.568,0 0,0 Z"
             style="fill:none;stroke:#000000;stroke-width:30;stroke-linecap:round;stroke-linejoin:round;stroke-miterlimit:10;stroke-dasharray:none;stroke-opacity:1"
             id="path969" /></g><g
           id="g971"
           transform="translate(497,316)"><path
             d="m 0,0 v 91 c 0,16.569 -13.432,30 -30,30 h -271 c 0,33.137 -26.863,60 -60,60 h -91 c -16.568,0 -30,-13.431 -30,-30 V 0"
             style="fill:none;stroke:#000000;stroke-width:30;stroke-linecap:round;stroke-linejoin:round;stroke-miterlimit:10;stroke-dasharray:none;stroke-opacity:1"
             id="path973" /></g><g
           id="g975"
           transform="translate(75,316)"><path
             d="M 0,0 V 61 H 362 V 0"
             style="fill:none;stroke:#000000;stroke-width:30;stroke-linecap:round;stroke-linejoin:round;stroke-miterlimit:10;stroke-dasharray:none;stroke-opacity:1"
             id="path977" /></g><g
           id="g979"
           transform="translate(166,76)"><path
             d="M 0,0 77.574,77.574"
             style="fill:none;stroke:#000000;stroke-width:30;stroke-linecap:round;stroke-linejoin:round;stroke-miterlimit:10;stroke-dasharray:none;stroke-opacity:1"
             id="path981" /></g><g
           id="g983"
           transform="translate(346,196)"><path
             d="m 0,0 c 0,-33.137 -26.863,-60 -60,-60 -33.137,0 -60,26.863 -60,60 0,33.137 26.863,60 60,60 C -26.863,60 0,33.137 0,0 Z"
             style="fill:none;stroke:#000000;stroke-width:30;stroke-linecap:round;stroke-linejoin:round;stroke-miterlimit:10;stroke-dasharray:none;stroke-opacity:1"
             id="path985" /></g></g></g></g></svg>
